X: 31371
T: Paddy O'Rafferty
R: jig
M: 6/8
K: Dmajor
BDD EDE|cBA GED|BDD EDE|GAG GED|
BDD EDE|cBA GED|Bc/d/B cBA|GAG GED||
GBB FAA|GAB cBA|GBB FAA|GAG GED|
GBB FAA|GAB cBA|Bc/d/B cBA|GAG GED||
d^cd efg|ded dBG|dB/^c/d efg|GAG GED|
dB/^c/d efg|ded dBG|gfe dBG|AB/A/G FED||
B2G A2G|B2G AGE|B2G A2G|GAG GED|
BGG AGG|BGG AGE|B/c/dB cBA|GAG GED||

